src/main/resources/img/action/EditSource.svg

<svg width="16" height="16" version="1.1" viewBox="0 0 16 16" xmlns="http://www.w3.org/2000/svg">
 <path d="m5 11.014v0.98586l-3 7e-6v-1zm8.0005-8.014-0.99951 1.0141-10-0.014149v-1zm0.108 5.9761-2.0704-2.0704-5.038 5.0098v2.0704h2.0704zm1.7253-1.7253c0.22162-0.22165 0.22162-0.81356 0-1.0352l-1.0352-1.0352c-0.22162-0.22165-0.81358-0.22165-1.0352 0l-1.0352 1.0352 2.0704 2.0704zm-5.9698-0.23665-1 1-5.864-0.014149v-1zm2-2-1 1-7.864-0.014149v-1zm-4 4-1 1-3.864-0.01415v-1z" fill="#6e6e6e"/>
</svg>

<svg width="16" height="16" xmlns="http://www.w3.org/2000/svg"><path d="M5 11.014V12H2v-1zM13 3l-.999 1.014-10-.014V3zm.109 5.976-2.07-2.07L6 11.916v2.07h2.07zm1.725-1.725c.221-.222.221-.814 0-1.035L13.799 5.18c-.222-.221-.814-.221-1.036 0l-1.035 1.036 2.07 2.07zm-5.97-.237-1 1L2 8V7zm2-2-1 1L2 6V5zm-4 4-1 1L2 10V9z" fill="#6e6e6e"/></svg>
